X: 3
T: The Yellow Heifer
R: reel
M: 4/4
L: 1/8
K: Gmix
DGG^F G2Ac|BG~G2 eGdG|DFFE ~F3_B|AFcF dFcF|DGG^F G2Ac|BGGA Bcde|fage fdcA|1 BdA^F DGGC:|2 BdA^F DGGc|||:dgg^f ~g3a|bg~g2 bgaf|~d3e fefg|af~f2 gfdc|dgg^f ~g3a|bg~g2 gfde|fage fdcA|1 BdA^F DGGc:|2 BdA^F DGGA|||:BG~G2 BGdG|BG~G2 (3Bcd gd|AF~F2 AFcF|AF~F2 ABcA |BG~G2 BGdG|BGGA Bcde|fage fdcA|1 BdA^F DGGA:|2 BdA^F DGGC||


Tune 344	Setting 13139

